X: 33958
T: Redhaired Hurricane, The
R: reel
M: 4/4
K: Dmajor
|:A3B AD (3DDD|B_B =Bc dc de|f3e dB AF|GB AG FA EA|
DA A_A =AD FA|B_B =Bc dc de|f3e dB AF|1 EA FE DA (3AAA:|2 EA FE Dd AF||
|:DA, FA, EA, GA,|FD AE G=F B_A|AF dB Ad BA|FB AF EB (3AFE|
DA, FA, GD B_A|AF dA Be dB|Ad BA FB AF|1 EA, CE DA FE:|2 EA, CE D4||

